X: 42732
T: White Blackbird, The
R: jig
M: 6/8
K: Adorian
|:E2A ABc|ABA GED|E2A AB/c/d|edB ~A2G|
E2A ABc|ABA GAB|AB/c/d e2g|1 edB ~A2G:|2 edB AB/c/d||
|:e2a aba|age de/f/g|aba ~g3|edB AB/c/d|
e2a ~g3|e/f/ge d2d|AB/c/d e2g|1 edB AB/c/d:|2 edB ~A2G||

